X:557
T:Maggie in the wood
R:Polka
O:Ireland
P:See also: Knocknaboul polka 1
B:Irish Traditional Music Session Tunes 2
S:My arrangement from various sources
Z:Transcription, arrangement, chords:Mike Long
M:2/4
L:1/8
K:G
B/2A/2|\
"G"GD GA|"C"Be ef/e/|"G"dB AG/A/|"D"BA AB/A/|\
"G"GD GA|"C"Be ef/e/|"G"dB "D"AB/A/|"G"G2G:|
d|\
"G"gf ed|"C"ef g>e|"G"dB B/A/G/A/|"D"BA Ad|\
"G"gf ed|"C"ef g>e|"G"dB "D"AB/A/|"G"G2G||
d|\
"G"gf ed|"C"ef g>e|"G"dB B/A/G/A/|"D"BA AB/A/|\
"G"GD GA|"C"Be ef/e/|"G"dB "D"AB/A/|"G"G2G|]
